X:3587
T:Le héron de Saint-Vincent (C. Caron) - Rond de St.Vincent
O:england
C:Trad 4, 30
M:4/4
L:1/8
K:C
AB|c2e2 BddB|c2AB c2e2|BddB c2AB|1 c2e2 B2:|2 c2e2 +B4g4+||
|:ABcA G3c|Bdc2 ABcA| G3c Bdc2|ABcA B3c|A3G ABcA|B2c2 A4:|


